X:108 
T:Jolly Seven (reel) 
B:CRE3.163 (Seachtar SÃÂÃÂÃÂÃÂºgach)
F:file ID: cre.3/108jolly_7
R:reel
L:1/8
Q:180
M:C
K:Am
AB|cAeA cAeA|cAeA dBGB|cAeA cdeg|a^fge dBGB|
cAeA cAeA|cAeA dBGB|cBAG ABce|aeed cAA||
B| c2ec gcec|c2ge dBGB|c2ec gceg|g^fge dBGB|
ccec gcec|ccge dBGB|cBAG ABce|aeed cAA|]

%%%

